!!!!SEGMENT: pl-kk--kk-i-8--006_rozycki-jacek--regi-nitentis.krn
!!!cenid: 16xx:1147
!!!COM: Różycki, Jacek
!!!COM-rismID: pe30020620
!!!CDT: ~1635-~1703
!!!CNT: Polish
!!!OTL: Regi nitentis
!!!PDT:
!!!AGN: Sacred
!!!SMS-siglum: PL-Kk
!!!SMS-shelfmark: Kk.I.8
!!!SMS-shelfwork: 006 W
!!!SMS-variant:
!!!SMS-altvar:
!!!NIFC-rismSourceID: 1001148310
!!!NIFC-islandoraID: pl-kk:2296
!!!URL-pdf-islandora: https://repozytorium.nifc.pl/islandora/object/pl-kk%3A2296/datastream/PDF/view
!!!URL-scan: https://polish.musicsources.pl/pl/lokalizacje/galeria/rekopisy/6141 @EN{Scan on Polish Music Sources Website} @PL{Skany w portalu Dziedzictwo Muzyki Polskiej w otwartym dostępie}
!!!ONB-nifc: UWAGA: A (skan 0004), T1 (0027), T2 (0051), B (0074) Następny utwór: Salve mundi Domina
!!!AIN: 1 alto 1 bass 2 tenor
!!!key:
**kern	**text	**text	**text	**kern	**text	**text	**text	**kern	**text	**text	**text	**kern	**text	**text	**text
*part4	*part4	*part4	*part4	*part3	*part3	*part3	*part3	*part2	*part2	*part2	*part2	*part1	*part1	*part1	*part1
*staff4	*staff4	*staff4	*staff4	*staff3	*staff3	*staff3	*staff3	*staff2	*staff2	*staff2	*staff2	*staff1	*staff1	*staff1	*staff1
*Ibass	*	*	*	*Itenor	*	*	*	*Itenor	*	*	*	*Ialto	*	*	*
*I"[BASSVS.]	*	*	*	*I"[TENOR 2dus.]	*	*	*	*I"[Tenore 1mo]	*	*	*	*I"[alto.]	*	*	*
*I'B	*	*	*	*I'T 2	*	*	*	*I'T 1	*	*	*	*I'A	*	*	*
*clefF4	*	*	*	*clefC4	*	*	*	*clefC1	*	*	*	*clefC3	*	*	*
*ok[f#f#]	*	*	*	*ok[f#f#]	*	*	*	*	*	*	*	*ok[f#f#]	*	*	*
*k[f#]	*	*	*	*k[f#]	*	*	*	*k[f#]	*	*	*	*k[f#]	*	*	*
*a:	*	*	*	*a:	*	*	*	*a:	*	*	*	*a:	*	*	*
*M3/2	*	*	*	*M3/2	*	*	*	*M3/2	*	*	*	*M3/2	*	*	*
=1-	=1-	=1-	=1-	=1-	=1-	=1-	=1-	=1-	=1-	=1-	=1-	=1-	=1-	=1-	=1-
!LO:TX:t=P:problem=przed kluczem inicjał R	!	!	!	!LO:TX:t=P:problem=przed kluczem inicjał R	!	!	!	!LO:TX:t=P:problem=przed kluczem inicjał R	!	!	!	!LO:TX:t=P:problem=przed kluczem inicjał R	!	!	!
2E\	1.Re-	2.A	5.Cle-	2B\	1.Re-	2.A	5.Cle-	2b\	1.Re-	2.à	5.Cle-	2e\	1.Re-	2.A	5.Cle-
!	!	!	!	!	!	!	!	!LO:SIC:v:s=2g#	!	!	!	!	!	!	!
2.E\	-gi	Pat-	-mens	2B\	-gi	Pat-	-mens	2g\	-gi	Pat-	-mens	2g#X\	-gi	Pat-	-mens
.	.	.	.	2e\	ni-	-re	Pat-	2b\	ni-	-re	Pat-	2g#\	ni-	-re	Pat-
4E\	Ni-	-re	Pat-	.	.	.	.	.	.	.	.	.	.	.	.
=2-	=2-	=2-	=2-	=2-	=2-	=2-	=2-	=2-	=2-	=2-	=2-	=2-	=2-	=2-	=2-
1A	-ten-	no-	-ro-	4c\	-ten-	no-	-ro-	1cc	-ten-	no-	-ro-	1a	-ten-	no-	-ro-
.	.	.	.	4B\	.	.	.	.	.	.	.	.	.	.	.
.	.	.	.	4c\	.	.	.	.	.	.	.	.	.	.	.
.	.	.	.	4d\	.	.	.	.	.	.	.	.	.	.	.
!	!	!	!	!	!	!	!	!	!	!	!	!LO:TX:t=P:problem=# above	!	!	!
2E\	-tis	-bi-	-na	2e\	-tis	-bi-	-na	2b\	-tis	-bi-	-na	2g#X\	-tis	-bi-	-na
=3-	=3-	=3-	=3-	=3-	=3-	=3-	=3-	=3-	=3-	=3-	=3-	=3-	=3-	=3-	=3-
!LO:TX:t=P:problem=# above	!	!	!	!	!	!	!	!	!	!	!	!	!	!	!
2.F#X\	Sy-	-liſ-	o(m-	2.e\	Sy-	-liſ-	om-	2.a\	Sy-	-liſ-	om-	2.a\	Sy-	-liſ-	om-
4F#\	-de-	-Si-	-n)i-	4d\	-de-	-Si-	-ni-	4a\	-de-	-Si-	-ni-	4a\	-de-	-Si-	-ni-
!LO:TX:t=P:problem=kreska pseudotaktowa	!	!	!	!	!	!	!	!LO:TX:t=P:problem=# above	!	!	!	!	!	!	!
2E\	-ris	-mo	-b(us)	2e\	-ris	-mo	-bus	2g#X\	-ris	-mo	-b(us)	2e\	-ris,	-mo,	-b(us),
=4-	=4-	=4-	=4-	=4-	=4-	=4-	=4-	=4-	=4-	=4-	=4-	=4-	=4-	=4-	=4-
!	!	!	!	!	!	!	!	!LO:SIC:v:l:s=Chri:verse1	!	!	!	!	!	!	!
2E\	Chri-	Vul-	di-	2e\	Chr(i-	Vul-	di-	2ee\	X(ri-	vul-	di-	2g\	Chri-	Vul-	di-
(4F#\	-sto	-t(us)	-lec-	2.d\	-st)o	-t(us)	-lec-	2a\	-st)o	-t(us)	-lec-	2a\	-sto	-t(us)	-lec-
4E\)	.	.	.	.	.	.	.	.	.	.	.	.	.	.	.
!	!	!	!	!	!	!	!	!	!	!	!	!LO:TX:t=P:problem=# above	!	!	!
4D\	ca-	ob	-ta	.	.	.	.	2dd\	ca-	ob	-ta	2f#X\	Ca-	ob	-ta
8E\L	.	.	.	4d\	ca-	ob	-ta	.	.	.	.	.	.	.	.
8F#\J	.	.	.	.	.	.	.	.	.	.	.	.	.	.	.
=5-	=5-	=5-	=5-	=5-	=5-	=5-	=5-	=5-	=5-	=5-	=5-	=5-	=5-	=5-	=5-
1G	-na-	e-	te	1d	-na-	e-	te	4b\	-na-	e-	te	2.d\	-na-	e-	te
.	.	.	.	.	.	.	.	4a\	.	.	.	.	.	.	.
.	.	.	.	.	.	.	.	4b\	.	.	.	.	.	.	.
.	.	.	.	.	.	.	.	4cc\	.	.	.	4e\	.	.	.
!	!	!	!	!	!	!	!	!	!	!	!	!LO:TX:t=P:problem=# above	!	!	!
2F#\	-m(us)	-le-	co-	2A/	-m(us)	-le-	co-	2dd\	-m(us)	-le-	co-	2f#X\	-m(us)	-le-	co-
=6-	=6-	=6-	=6-	=6-	=6-	=6-	=6-	=6-	=6-	=6-	=6-	=6-	=6-	=6-	=6-
2.A\	gl(o-	-gan-	-len-	2.A/	glo-	-gan-	-len-	2.dd\	glo-	-gan-	-len-	2.e\	glo-	-gan-	-len-
4A\	-ri)-	-ti-	-ti-	4A/	-ri-	-ti-	-ti-	4cc\	-ri-	-ti-	-ti-	4e\	-ri-	-ti-	-ti-
!LO:TX:t=P:problem=kreska pseudotaktowa	!	!	!	!	!	!	!	!	!	!	!	!LO:SIC:v:s=2f#	!	!	!
2D/	-a(m)	-a(m)	-b(us)	2A/	-a(m)	-a(m)	-b(us)	2dd\	-a(m)	-a(m)	-b(us)	2e\	-a(m)	-a(m)	-b(us)
=7-	=7-	=7-	=7-	=7-	=7-	=7-	=7-	=7-	=7-	=7-	=7-	=7-	=7-	=7-	=7-
!	!	!	!	!	!	!	!	!	!	!	!	!LO:TX:t=P:problem=# above	!	!	!
2D/	ob	in	dum	2A/	ob	In	dum	2dd\	ob	in	dum	2f#X\	ob	in	dum
2.D/	glo-	tur-	ho-	2d\	glo-	tur-	ho-	(4a\	glo-	tur-	ho-	2.f#\	glo-	tur-	ho-
.	.	.	.	.	.	.	.	4b\)	.	.	.	.	.	.	.
.	.	.	.	2A/	-ri-	-ris	ra	(4cc\	-ri-	-ris	-ra	.	.	.	.
4D/	-ri-	-ris	-ra	.	.	.	.	4dd\)	.	.	.	4f#\	-ri-	-ris	-ra
=8-	=8-	=8-	=8-	=8-	=8-	=8-	=8-	=8-	=8-	=8-	=8-	=8-	=8-	=8-	=8-
2.GG/	-o-	al-	Mor-	1B	-o-	al-	Mor-	(2.b\	-o-	al-	mor-	1g	-o-	al-	Mor-
8AA/L	.	.	.	.	.	.	.	4dd\)	.	.	.	.	.	.	.
8BB/J	.	.	.	.	.	.	.	.	.	.	.	.	.	.	.
2C/	-Sae	-tae	-tis	2e\	-Sae	-tae	-tis	(4cc\	-Sae	-tae	-tis	2g\	-sae	-tae	-tis
.	.	.	.	.	.	.	.	4b\)	.	.	.	.	.	.	.
=9-	=9-	=9-	=9-	=9-	=9-	=9-	=9-	=9-	=9-	=9-	=9-	=9-	=9-	=9-	=9-
!	!	!	!	!	!	!	!	!	!	!	!	!LO:TX:t=P:problem=# above	!	!	!
2.D/	Vir-	cul-	Ve-	2.A/	Vir-	cul-	Ve-	2.a\	Vir-	Cul-	Ve-	2.f#X\	Vir-	Cul-	Ve-
4D/	-gi-	-mi-	-ne-	4d\	-gi-	-mi-	-ne-	4a\	-gi-	-mi-	-ne-	4f#\	-gi-	-mi-	-ne-
!	!	!	!	!	!	!	!	!	!	!	!	!LO:TX:t=P:problem=skreślona nadliczbowa powtórka dwóch taktów	!	!	!
2D/	-ni[s]	-n[e]	-rit	2d\	-ni[s]	-ne	-rit	2a\	-nis	-ne	-rit	2f#\	-nis	-ne	-rit
=10-	=10-	=10-	=10-	=10-	=10-	=10-	=10-	=10-	=10-	=10-	=10-	=10-	=10-	=10-	=10-
2BB/	So-	lae-	Suc-	2d\	So-	lae-	Suc-	2b\	So-	l[ae]-	Suc-	2g\	So-	lae-	Suc-
4AA/	-len-	-ta-	-cur-	2.c\	-len-	-ta-	-cur-	(4cc\	-len-	-[t]a-	-cur-	2.a\	-len-	-ta-	-cur-
4BB/	.	.	.	.	.	.	.	4dd\)	.	.	.	.	.	.	.
!LO:TX:t=P:problem=kreska pseudotaktowa	!	!	!	!	!	!	!	!	!	!	!	!	!	!	!
2C/	-ni-	-tur	-re	.	.	.	.	(4cc\	-ni-	-t(ur)	-re	.	.	.	.
.	.	.	.	4c\	-ni-	-tur	-re	4b\)	.	.	.	4g\	-ni-	-t(ur)	-re
=11-	=11-	=11-	=11-	=11-	=11-	=11-	=11-	=11-	=11-	=11-	=11-	=11-	=11-	=11-	=11-
!	!	!	!	!LO:SIC:v:s=1A	!	!	!	!	!	!	!	!	!	!	!
2.D/	-ta-	ab-	tunc	1B	-ta-	ab-	tunc	2.a\	-ta-	ab-	tunc	1f#	-ta-	ab-	tunc
8E\L	.	.	.	.	.	.	.	8b\L	.	.	.	.	.	.	.
8F#\J	.	.	.	.	.	.	.	8cc\J	.	.	.	.	.	.	.
2G\	-te	-di	Mor-	2B\	-te	-di	Mor-	2b\	-te	-di	Mor-	2e\	-te	-di	Mor-
=12-	=12-	=12-	=12-	=12-	=12-	=12-	=12-	=12-	=12-	=12-	=12-	=12-	=12-	=12-	=12-
2A\	Bar-	Fi-	-ta-	2c\	Bar-	Fi-	-ta-	4a\	Bar-	Fi-	-ta-	1e	Bar-	Fi-	-ta-
.	.	.	.	.	.	.	.	4g/	.	.	.	.	.	.	.
2.B\	.	.	.	2.B\	.	.	.	2.f#X/	.	.	.	.	.	.	.
!	!	!	!	!	!	!	!	!	!	!	!	!LO:TX:t=P:problem=# above	!	!	!
.	.	.	.	.	.	.	.	.	.	.	.	2d#X\	-ba-	-li-	-li-
4BB/	-ba-	-li-	-li-	4B\	-ba-	-li-	-li-	4f#/	-ba-	-li-	-li-	.	.	.	.
=13-	=13-	=13-	=13-	=13-	=13-	=13-	=13-	=13-	=13-	=13-	=13-	=13-	=13-	=13-	=13-
!LO:TX:t=P:problem=kreska pseudotaktowa	!	!	!	!	!	!	!	!	!	!	!	!	!	!	!
1.E	-rae	-a	-bus	1.B;;	-rae	-a.	-b(us).	1.e;<	-rae	-a.	-b(us).	1.e	-rae	-a	-b(us)
=14||	=14||	=14||	=14||	=14||	=14||	=14||	=14||	=14||	=14||	=14||	=14||	=14||	=14||	=14||	=14||
*M2/2	*	*	*	*M2/2	*	*	*	*M2/2	*	*	*	*M2/2	*	*	*
*met(c|)	*	*	*	*met(c|)	*	*	*	*met(c|)	*	*	*	*met(c|)	*	*	*
!LO:SIC:v:s=2A	!	!	!	!	!	!	!	!	!	!	!	!	!	!	!
2F#\	3.Af-	4.I-	6.Praeſ-	2e\	3.Af-	4.I-	6.Praeſ-	2cc\	3.af-	4.I-	6.Praeſ-	4r	.	.	.
.	.	.	.	.	.	.	.	.	.	.	.	2a\	3.af-	4.I-	6.Praeſ-
!LO:SIC:v:s=4A	!	!	!	!	!	!	!	!	!	!	!	!	!	!	!
4F#\	-fla-	-do-	-ta	4e\	-fla-	-do-	-ta	4cc\	-fla-	-do-	-ta	.	.	.	.
!LO:SIC:v:s=4A	!	!	!	!	!	!	!	!	!	!	!	!	!	!	!
4F#\	-ta	-la	Pa-	4e\	-ta	-la	Pa-	4cc\	-ta	-la	P(a-	8a\	-fla-	-do-	-ta
.	.	.	.	.	.	.	.	.	.	.	.	8a\	-ta	-la	P(a-
=15	=15	=15	=15	=15-	=15-	=15-	=15-	=15-	=15-	=15-	=15-	=15-	=15-	=15-	=15-
4.D/	S(an)-	ſper-	-ter	4d\	S(an)-	ſpêr-	-têr	4dd\	S(an)-	ſpêr-	-te)r	4f#\	S(an)-	ſper-	-te)r
.	.	.	.	4A/	-cto	-nit	cu(m)	4ee\	-cto	-nit	cu(m)	4a\	-cto	-nit	cu(m)
!LO:TX:b:t=P:problem=# below	!	!	!	!	!	!	!	!	!	!	!	!	!	!	!
8C#X/	-cto	-nit	Cu(m)	.	.	.	.	.	.	.	.	.	.	.	.
4.D/	Sp(i-	Bar-	Fi-	4.d\	Spi-	Bar-	Fi-	8ee\L	Sp(i-	Bar-	Fi-	4.f#\	Sp(i-	Bar-	Fi-
.	.	.	.	.	.	.	.	16dd\L	.	.	.	.	.	.	.
.	.	.	.	.	.	.	.	16cc\JJ	.	.	.	.	.	.	.
.	.	.	.	.	.	.	.	8.dd\	.	.	.	.	.	.	.
8D/	-ri-	-ba-	-li-	8d\	-ri-	-ba-	-li-	.	.	.	.	8f#\	-ri-	-ba-	-li-
.	.	.	.	.	.	.	.	16dd\	-ri-	-ba-	-li-	.	.	.	.
=16	=16	=16	=16	=16-	=16-	=16-	=16-	=16-	=16-	=16-	=16-	=16-	=16-	=16-	=16-
4AA/	-t)u	-ra	-o	4e\	-tu	-ra	-o	4cc\	-t)u	-ra	-o	4e\	-t)u	-ra	-o
!	!	!	!	!	!	!	!	!LO:SIC:v:l:s=Chri:verse1	!	!	!	!	!	!	!
2A\	Chri-	Pa-	et	2A/	Chri-	Pa-	êt	2cc\	X(ri-	Pa-	et	2e\	Chri-	P(a-	et
8F#\	-ſti	-ter	Sp(i-	8d\	-sti	-ter	Spi-	8.dd\	-st)i	-ter	Sp(i-	8a\	-sti	-te)r	ſp(i-
8F#\	fi-	fu-	-ri-	8d\	fi-	fu-	-ri-	.	.	.	.	8a\	fi-	fu-	-ri-
.	.	.	.	.	.	.	.	16dd\	fi-	fu-	-ri-	.	.	.	.
=17	=17	=17	=17	=17-	=17-	=17-	=17-	=17-	=17-	=17-	=17-	=17-	=17-	=17-	=17-
4G\	-de(m)	-ro-	-t)u	4.d\	-de(m)	-ro-	-tu	8b\L	-de(m)	-ro-	-t)u	4g\	-de(m)	-ro-	-t)u
.	.	.	.	.	.	.	.	8cc\J	.	.	.	.	.	.	.
4D/	Com-	-re	Pa-	.	.	.	.	8dd\	.	.	.	4f#\	Com-	-re	Pa-
.	.	.	.	8A/	com-	-re	Pa-	8dd\	com-	-re	Pa-	.	.	.	.
4.A\	-ple-	per-	-ra-	4.A/	-ple-	per-	-ra-	4dd\	-ple-	per-	-ra-	4.e\	-ple-	per-	-ra-
.	.	.	.	.	.	.	.	8cc\	.	.	.	.	.	.	.
!LO:SIC:v:l:s=cli:verse3	!	!	!	!LO:SIC:v:l:s=cli:verse3	!	!	!	!	!	!	!	!	!	!	!
8A\	-cti-	-ci-	-cle-	8A/	-cti-	-ci-	-cle-	8dd\	-cti-	-ci-	-cli-	8e\	-cti-	-Ci-	-cli-
!	!	!	!	!	!	!	!	!	!	!	!	!LO:LB:g=original	!	!	!
=18	=18	=18	=18	=18-	=18-	=18-	=18-	=18-	=18-	=18-	=18-	=18-	=18-	=18-	=18-
4D,/	-t(ur)	-t(us)	-to	4A/	-t(ur)	-t(us)	-to	4dd\	-t(ur)	-t(us)	-to	4f#\	-t(ur)	-t(us)	-to
4D/	Af-	I-	Praeſ-	4A/	af-	i-	Praeſ-	4dd\	af-	I-	Praeſ-	2f#\	af-	I-	Praeſ-
4D/	-fla-	-do-	-ta	4A/	-fla-	-do-	-ta	4dd\	-flata	-dola	-ta_P(a-	.	.	.	.
!	!	!	!	!	!	!	!	!LO:TX:t=P:problem=defekt źródła	!	!	!	!	!	!	!
4D/	-ta	-la	Pa-	4d\	-ta	-la	Pa-	4ryy	.	.	.	8f#\	-fla-	-do-	-ta
.	.	.	.	.	.	.	.	.	.	.	.	8f#\	-ta	-la	P(a-
!LO:LB:g=original	!	!	!	!LO:LB:g=original	!	!	!	!LO:LB:g=original	!	!	!	!	!	!	!
=19	=19	=19	=19	=19-	=19-	=19-	=19-	=19-	=19-	=19-	=19-	=19-	=19-	=19-	=19-
4.G\	S(an)-	ſper-	-ter	4B\	S(an)-	Sper-	-ter	4.dd\	San-	Sper-	-te)r	4.g\	S[an]-	ſper-	-te)r
.	.	.	.	4d\	-cto	-nit	cu(m)	.	.	.	.	.	.	.	.
8F#\	-cto	-nit	Cu(m)	.	.	.	.	8dd\	-cto	-nit	cu(m)	8a\	-cto	-nit	cu(m)
4.G\	Sp(i-	Bar-	Fi-	4.B\	Spi-	Bar-	Fi-	4.dd\	Spi-	Bar-	Fi-	8a\L	Spi-	Bar-	Fi-
.	.	.	.	.	.	.	.	.	.	.	.	16g\L	.	.	.
.	.	.	.	.	.	.	.	.	.	.	.	16f#\JJ	.	.	.
.	.	.	.	.	.	.	.	.	.	.	.	8.g\	.	.	.
8G\	-ri-	-ba-	-li-	8B\	-ri-	-ba-	-li-	8dd\	-ri-	-ba-	-li-	.	.	.	.
.	.	.	.	.	.	.	.	.	.	.	.	16g\	-ri-	-ba-	-li-
=20	=20	=20	=20	=20-	=20-	=20-	=20-	=20-	=20-	=20-	=20-	=20-	=20-	=20-	=20-
4D/	-t)u	-ra	-o	4A/	-tu	-ra	-o	4dd\	-tu	-ra	-o	4f#\	-tu	-ra	-o
!	!	!	!	!	!	!	!	!	!	!	!	!LO:SIC:v:l:s=Chri:verse1	!	!	!
2D/	Chr(i-	P(a-	et	2A/	Chr(i-	Pa-	Et	4dd\	Chri-	Pa-	êt	2f#\	X(ri-	Pa-	et
.	.	.	.	.	.	.	.	4dd\	-ſti	-ter	Sp(i-	.	.	.	.
8.BB/	-st)i	-te)r	Sp(i-	8B\	-st)i	-ter	Sp(i-	4dd\	fi-	fu-	-ri-	8g\	-st)i	-ter	Sp(i-
.	.	.	.	8B\	fi-	fu-	-ri-	.	.	.	.	8g\	fi-	fu-	-ri-
16BB/	fi-	fu-	-ri-	.	.	.	.	.	.	.	.	.	.	.	.
=21	=21	=21	=21	=21-	=21-	=21-	=21-	=21-	=21-	=21-	=21-	=21-	=21-	=21-	=21-
4C/	-d(em)	-ro-	-t)u	4G/	-d(em)	-ro-	-t)u	4cc\	-d(em)	-ro-	-t)u	8e\L	-de(m)	-ro-	-t)u
.	.	.	.	.	.	.	.	.	.	.	.	16f#\L	.	.	.
.	.	.	.	.	.	.	.	.	.	.	.	16g\JJ	.	.	.
4AA/	Com-	-re	Pa-	4c\	com-	-re	Pa-	4cc\	com-	-re	Pa-	8a\	.	.	.
.	.	.	.	.	.	.	.	.	.	.	.	8a\	com-	-re	Pa-
4.E\	-ple-	p(er)-	-ra-	4.e\	-ple-	per-	-ra-	4.b\	-ple-	per-	-ra-	4.a\	-ple-	per-	-ra-
!LO:SIC:v:l:s=cli:verse3	!	!	!	!LO:SIC:v:l:s=cli:verse3	!	!	!	!LO:SIC:v:l:s=cli:verse3	!	!	!	!	!	!	!
8E\	-cti-	-ci-	-clê-	8e\	-cti-	-ci-	-cle-	8b\	-cti-	-ci-	-cle-	8g\	-cti-	-ci-	-cli-
=22	=22	=22	=22	=22-	=22-	=22-	=22-	=22-	=22-	=22-	=22-	=22-	=22-	=22-	=22-
4AA/	-t(ur)	-t(us)	-to	4c#X\	-t(ur)	-t(us)	-to	4a\	-t(ur)	-t(us)	-to	4a\	-t(ur)	-t(us)	-to
!LO:SIC:v:s=4C	!	!	!	!	!	!	!	!LO:SIC:v:s=4cc	!	!	!	!	!	!	!
4D/	Et	tor-	S(an-	4A\	et	tor-	S(an-	4dd\	et	tor-	S(an-	4e\	et	tor-	S(an-
!	!	!	!	!	!	!	!	!LO:SIC:v:l:s=que:verse2	!	!	!	!	!	!	!
!LO:SIC:v:l:s=que:verse2	!	!	!	!LO:SIC:v:l:s=que:verse2	!	!	!	!LO:SIC:v:s=4.dd	!	!	!	!	!	!	!
4BB/	Caſ-	-qve-	-c)tae	4B\	Caſ-	-qve-	-c)tae	4.ee\	Caſ-	-qve-	-c)tae	4f#\	Cas-	-que-	-c)tae
!	!	!	!	!	!	!	!	!	!	!	!	!LO:TX:t=P:problem=dwie nadliczbowe nuty	!	!	!
4BB/	-ti-	-re	ju-	4B\	-ti-	-re	ju-	.	.	.	.	4f#\	-ti-	-re	ju-
.	.	.	.	.	.	.	.	8b\	-ti-	-re	ju-	.	.	.	.
=23	=23	=23	=23	=23-	=23-	=23-	=23-	=23-	=23-	=23-	=23-	=23-	=23-	=23-	=23-
4C/	-ta-	man-	-va-	4G/	-ta-	man-	-va-	4ee\	-ta-	Man-	-va-	4e\	-ta-	Man-	-va-
4GG#X/	-te(m)	-dat	-men	4B\	-te(m)	-dat	-men	4b\	-te(m)	-dat	-men	4e\	-te(m)	-dat	-men
4.AA/	de-	in-	Bar-	8B\L	de-	in-	Bar-	4.cc\	de-	in-	Bar-	4.e\	de-	In-	Bar-
.	.	.	.	16A\L	.	.	.	.	.	.	.	.	.	.	.
.	.	.	.	16G\JJ	.	.	.	.	.	.	.	.	.	.	.
.	.	.	.	8.A/	.	.	.	.	.	.	.	.	.	.	.
!	!	!	!	!	!	!	!	!LO:SIC:v:l:s=cly:verse2	!	!	!	!LO:SIC:v:l:s=cly:verse2	!	!	!
8AA/	-di-	-cly-	-ba-	.	.	.	.	8cc\	-di-	-cli-	-ba-	8e\	-di-	-cli-	-ba-
.	.	.	.	16A/	-di-	-cly-	-ba-	.	.	.	.	.	.	.	.
=24	=24	=24	=24	=24-	=24-	=24-	=24-	=24-	=24-	=24-	=24-	=24-	=24-	=24-	=24-
4E\	-cat	-ta	-rae	4B\	-cat	-ta	-rae	4b\	-cat	-ta	-rae	4e\	-cat	-ta	-rae
8E/	Ti-	.	.	[8B\	Ti-	.	.	8b\	ti-	.	.	4e\	tibi	et	Vt
8E/	-bi	et	ut	8B\]	-bi	et	ut	8b\	-bi	et	ut	.	.	.	.
4.C/	Je-	ip-	jn-	4A/	Je-	ip-	in-	4ee\	JE-	ip-	in-	4.a\	Je-	ip-	in-
!	!	!	!	!LO:TX:b:t=P:problem=# below	!	!	!	!	!	!	!	!	!	!	!
!	!	!	!	!LO:N:acc=#	!	!	!	!	!	!	!	!	!	!	!
.	.	.	.	4An/	-ſu	-Se	-vo-	4ee\	-SV	-ſe	-vo-	.	.	.	.
8C/	-ſV	-Se	-vo-	.	.	.	.	.	.	.	.	8a\	-ſu	-ſe	-vo-
=25	=25	=25	=25	=25-	=25-	=25-	=25-	=25-	=25-	=25-	=25-	=25-	=25-	=25-	=25-
4.D/	ſpon-	tor-	-can-	4.B\	Spon-	tor-	-can-	4ff#\	ſpon-	tor-	-can-	4.a\	ſpon-	tor-	-can-
!	!	!	!	!	!	!	!	!LO:SIC:v:l:s=quet:verse2	!	!	!	!	!	!	!
.	.	.	.	.	.	.	.	4ff#\	-ſe	-qvet	-teſ	.	.	.	.
!LO:SIC:v:l:s=quet:verse2	!	!	!	!LO:SIC:v:l:s=quet:verse2	!	!	!	!	!	!	!	!LO:SIC:v:l:s=quet:verse2	!	!	!
8D/	-ſe	-qvet	-têſ	8d\	-ſe	-qvet	-teſ	.	.	.	.	8a\	-ſe	-qvet	-teſ
!	!	!	!	!	!	!	!	!	!	!	!	!LO:SIC:v:s=4.f#	!	!	!
4.BB/	Vir-	Fi-	Sen-	4.d\	Vir-	Fi-	Sen-	4.dd#X\	Vir-	[fi]-	ſen-	4.g\	Vir-	fi-	Sen-
!	!	!	!	!	!	!	!	!	!	!	!	!LO:SIC:v:s=8f#	!	!	!
8BB/	-gi-	-li-	-ti-	8d\	-gi-	-[li]-	-ti-	8dd#\	-gi-	-li-	-ti-	8g\	-gi-	-li-	-ti-
=26	=26	=26	=26	=26-	=26-	=26-	=26-	=26-	=26-	=26-	=26-	=26-	=26-	=26-	=26-
4C/	-nu(m)	-a	-ant	2cny\	-nu(m)	-a	-ant	2ee\	-nu(m)	-a	-ant	2e\	-nu(m)	-a	-ant
4C/	tibi	et	.	.	.	.	.	.	.	.	.	.	.	.	.
4C/	JE-	ip-	in-	4c\	ſpon-	tor-	In-	4ee\	Je-	ip-	ut	4e\	.	.	In-
4AA/	-ſV	-se	-vo-	4c\	-ſe	-qvet	-vo-	8ff#\	-Su	-Se	in-	4a\	.	.	-vo-
.	.	.	.	.	.	.	.	8ee\	.	.	-vo-	.	.	.	.
=27	=27	=27	=27	=27-	=27-	=27-	=27-	=27-	=27-	=27-	=27-	=27-	=27-	=27-	=27-
4.BB/	ſpon-	tor-	-can-	2.B\	Vir-	Fi-	-canteſ_Sen-	4dd#X\	ſpon-	tor-	-can-	4a\	ſpon-	tor-	-can-
.	.	.	.	.	.	.	.	4ee\	-ſe	-qvet	-tes	4g\	-ſe	-qvet	-tes
8BB/	-ſe	-qvet	-teſ	.	.	.	.	.	.	.	.	.	.	.	.
4.BB/	Vir-	Fi-	Sen-	.	.	.	.	4.ee\	Vir-	Fi-	Sen-	4.f#\	Vir-	fi-	Sen-
.	.	.	.	4B\	-gi-	-li-	-ti-	.	.	.	.	.	.	.	.
8BB/	-gi-	-li-	-ti-	.	.	.	.	8dd#X\	-gi-	-li-	-ti-	8f#\	-gi-	-li-	-ti-
=28	=28	=28	=28	=28-	=28-	=28-	=28-	=28-	=28-	=28-	=28-	=28-	=28-	=28-	=28-
2E;\	-nu(m)	-a	-ant	2B;\	-nu(m)	-a	-ant	2ee\	-nu(m)	-a	-ant.	2e;\	-nu(m)	-a	-ant
=29||	=29||	=29||	=29||	=29||	=29||	=29||	=29||	=29||	=29||	=29||	=29||	=29||	=29||	=29||	=29||
*M3/1	*	*	*	*M3/2	*	*	*	*M3/2	*	*	*	*M3/2	*	*	*
*	*	*	*	*met(3)	*	*	*	*met(3c|)	*	*	*	*met(3)	*	*	*
!LO:TX:t=P:problem=metrum faktyczne 3/2	!	!	!	!	!	!	!	!	!	!	!	!	!	!	!
1.r	.	.	.	2r	.	.	.	2.ee\	a-	.	.	2r	.	.	.
.	.	.	.	2.B\	a-	.	.	.	.	.	.	2.g\	.	.	.
.	.	.	.	.	.	.	.	4dd\	.	.	.	.	.	.	.
.	.	.	.	.	.	.	.	4ee\	.	.	.	.	.	.	.
.	.	.	.	4B\	-men	.	.	4b\	.	.	.	4g\	.	.	.
=30	=30	=30	=30	=30-	=30-	=30-	=30-	=30-	=30-	=30-	=30-	=30-	=30-	=30-	=30-
*	*	*	*	*	*ij	*	*	*	*	*	*	*	*	*	*
!	!	!	!	!	!	!	!	!LO:N:acc=#	!	!	!	!	!	!	!
2r	.	.	.	1c	a-	.	.	1ccnX	.	.	.	1a	a-	.	.
4A\	a-	.	.	.	.	.	.	.	.	.	.	.	.	.	.
4G\	.	.	.	.	.	.	.	.	.	.	.	.	.	.	.
4A\	.	.	.	2c\	-men	.	.	2ccny\	-men	.	.	2a\	-men	.	.
*	*	*	*	*	*Xij	*	*	*	*	*	*	*	*	*	*
4E\	.	.	.	.	.	.	.	.	.	.	.	.	.	.	.
=31	=31	=31	=31	=31-	=31-	=31-	=31-	=31-	=31-	=31-	=31-	=31-	=31-	=31-	=31-
*	*	*	*	*	*	*	*	*	*	*	*	*	*ij	*	*
!	!	!	!	!	!	!	!	!LO:SIC:v:s=2.dd	!	!	!	!	!	!	!
1F#	.	.	.	1A	a-	.	.	2dd\	a-	.	.	2.f#\	a-	.	.
.	.	.	.	.	.	.	.	4ryy	.	.	.	.	.	.	.
.	.	.	.	.	.	.	.	4cc\	.	.	.	4e\	.	.	.
2F#\	-men	.	.	2A/	-men	.	.	4dd\	.	.	.	4f#\	.	.	.
.	.	.	.	.	.	.	.	4a\	.	.	.	4d\	.	.	.
=32	=32	=32	=32	=32-	=32-	=32-	=32-	=32-	=32-	=32-	=32-	=32-	=32-	=32-	=32-
*	*	*	*	*	*ij	*	*	*	*	*	*	*	*	*	*
2.G\	a-	.	.	2.B\	a-	.	.	1b	.	.	.	1d	.	.	.
4F#\	.	.	.	4A\	.	.	.	.	.	.	.	.	.	.	.
4G\	.	.	.	4B\	.	.	.	2b\	-men	.	.	2d\	-men	.	.
4E\	.	.	.	4G/	.	.	.	.	.	.	.	.	.	.	.
=33	=33	=33	=33	=33-	=33-	=33-	=33-	=33-	=33-	=33-	=33-	=33-	=33-	=33-	=33-
*	*	*	*	*	*	*	*	*	*ij	*	*	*	*	*	*
1A	.	.	.	1A	.	.	.	1cc	a-	.	.	1e	a-	.	.
2G#X\	-men	.	.	2B\	-men	.	.	2ee\	.	.	.	2f#\	.	.	.
=34	=34-	=34-	=34-	=34-	=34-	=34-	=34-	=34-	=34-	=34-	=34-	=34-	=34-	=34-	=34-
*	*ij	*	*	*	*	*	*	*	*	*	*	*	*	*	*
1.A	a-	.	.	1c	a-	.	.	1.cc	.	.	.	1.e	.	.	.
.	.	.	.	2A/	.	.	.	.	.	.	.	.	.	.	.
=35	=35-	=35-	=35-	=35-	=35-	=35-	=35-	=35-	=35-	=35-	=35-	=35-	=35-	=35-	=35-
!LO:TX:b:t=De S(an)ctà Barbara. V. êt Nb.	!	!	!	!	!	!	!	!LO:TX:b:t=De S. Barbara V. et Nb.	!	!	!	!	!	!	!
1.E;<	-men	.	.	1.B	-men	.	.	1.b;<	-men	.	.	1.e;;	-men	.	.
*	*Xij	*	*	*	*Xij	*	*	*	*Xij	*	*	*	*Xij	*	*
!LO:PB:g=original	!	!	!	!LO:PB:g=original	!	!	!	!LO:PB:g=original	!	!	!	!LO:PB:g=original	!	!	!
=-	=-	=-	=-	=-	=-	=-	=-	=-	=-	=-	=-	=-	=-	=-	=-
*-	*-	*-	*-	*-	*-	*-	*-	*-	*-	*-	*-	*-	*-	*-	*-
!!!system-decoration: [(s1,s2,s3,s4)]
!!!RDF**kern: < = below
!!!ENC: Marta Chmielewska
!!!END: 2021-04-02
!!!ENC: Kamil Watkowski
!!!END: 2021-03-23
